X: 43081
T: The Sands of Murness
C:Frank Ronald Jamieson, Shetland
D:Willie Hunter, Leaving Lerwick Harbour
D:Book 43 (Iain MacPhail and his Scottish Dance Band), track 11
Z:Nigel Gatherer
M:4/4
L:1/8
K:A
E2 |\
"A"A2 G>A "(D)"F>A "(E)"E>G | "A"A>c e<a f>e c<A | "E7"B2 G>B E>B G<B | "B7"g>f e^d "E7"f>e =d<B |
"A"A2 G>A "(D)"F>A "(E)"E>G | "A"A>c e<a f>e c<A | "Bm"f>e d>c "B7"B>a g>f | "E7"e>d B<G "A"A2 |]
c>e |\
"A"a>c' e<a c>e A<c | "A"E>A c>e a>g f>e | "E7"^d>e =d>e B>e g>f | "E7"(3efe (3dcB "A"c2 "E7"(3efg |
"A"a>c' e<a c>e A<c | "A"E>A c>e a>g f>e | "E7"^d>e =d>e "E7"B>e g>f | "E7"(3efe (3dcB "A"A2 |]
%%center Book43/43081-Sands_of_Murness-A.abc

%%sep 2 1 500
%%sep 1 1 500

